X:10
T:The Flowers of the Forest
Z:Jack Campin, http://www.campin.me.uk
F:http://www.campin.me.uk/Music/Flodden.abc
I:last edit 28-05-2013
S:NLS MS.9681
M:4/4
L:1/8
Q:1/4=76
K:D Mixolydian
   TA2     AB        (A/B/d) (e/f/g)|Tf2          ed      Bd (B/A/F)|\
   (E/F/A) AB        (A/B/d) (e/f/g)| f2        (Te2{de}) d4       :|
    c2    (c/e/d/c/) TB2     (A/B/d)| AfTe>d              Bd (B/A/F)|\
[1  c2    (c/e/d/c/) TB2     (A/B/d)| AfTe>d              d4       :|
[2 (E/F/A) AB        (A/B/d) (e/f/g)| f2        (Te2{de}) d4       ||\
   (f/g/a) ab        Ta2      gf    |(e/f/g/f/)  Ted      Bd (B/A/F)|
[1 (f/g/a) ab        Ta2      gf    |(e/f/g/f/)  Te>d     d4       :|\
[2 (E/F/A) AB        (A/B/d) (e/f/g)| f2        (Te2{de}) d4       |]

